X: 239
T:Moonlight in Mayo
R:waltz
C:Seamus Kavanagh
Z:Alf Warnock - alf0@rogers.com
M:3/4
L:1/8
K:A
E|"A"A4 A2|"E7"B4 G2|"A"A4 "D"F2|"A"E4 "D"D2|"A"C4 C2|"E7"D4 B,2|"A"A,6-|A,4 B,2|
"A"C4 E2|"F#m"A4 B2|"E"G4 B,2|"C#m7"G4 A2|"B7"F4 B,2|F4 G2|"E7"E6-|E4 E2|
"A"A4 A2|"E7"B4 G2|"A"A4 "D"F2|"A"E4 D2|C4 C2|"E7"D4 B,2|"A"A,6-|A,4 B,2|
"A"C4 E2|"F#m"A4 B2|"E7"G4 B,2|"C#7"G4 A2|"B7"F4 B,2|F4 G2|"E7"E6-|E4 A,B,|
"A"C4 B,2|A,4 B,2|C2 E4-|E4 FG|"D"A4 c2|"Bm"B4 A2|"D"A2 F4-|F4 FG|
"A"A4 G2|"D"F4 E2|"A"E2 C4-|C4 EE|"Bm7"F4 F2|"C#m"E4 C2|"E7"B,6-|B,4 A,B,|
"A"C4 B,2|A,4 B,2|C2 E4-|E4 FG|"D"A4 c2|"Bm7"B4 A2|"D"A2 F4-|F4 FG|
"A"A4 G2|"D"F4 E2|"A"E2 C4-|C4 E2|"B"F2 A4|"E7"A4 G2|"A"A6-|A6|]
